dist/font/Videobox.svg

<?xml version="1.0" standalone="no"?>
<!DOCTYPE svg PUBLIC "-//W3C//DTD SVG 1.1//EN" "http://www.w3.org/Graphics/SVG/1.1/DTD/svg11.dtd" >
<!--
2016-3-28: Created.
-->
<svg xmlns="http://www.w3.org/2000/svg">
<metadata>
Created by FontForge 20120731 at Mon Mar 28 19:17:01 2016
 By root
Created by root with FontForge 2.0 (http://fontforge.sf.net)
</metadata>
<defs>
<font id="Videobox" horiz-adv-x="512" >
  <font-face 
    font-family="Videobox"
    font-weight="500"
    font-stretch="normal"
    units-per-em="512"
    panose-1="2 0 6 3 0 0 0 0 0 0"
    ascent="448"
    descent="-64"
    bbox="42.667 -21.333 469.333 405.333"
    underline-thickness="25.6"
    underline-position="-51.2"
    unicode-range="U+0020-F10C"
  />
    <missing-glyph />
    <glyph glyph-name="space" unicode=" " horiz-adv-x="200" 
 />
    <glyph glyph-name="uniF103" unicode="&#xf103;" 
d="M170.667 341.333l234.666 -149.333l-234.666 -149.333v298.666z" />
    <glyph glyph-name="uniF108" unicode="&#xf108;" 
d="M128 42.667v298.666h85.333v-298.666h-85.333zM298.667 42.6875v298.646h85.333v-298.646h-85.333z" />
    <glyph glyph-name="uniF10C" unicode="&#xf10c;" 
d="M64 256h85.333l106.667 106.667v-341.334l-106.667 106.667h-85.333v128zM352 192c0 -37.6533 -21.7598 -70.1865 -53.333 -85.9736v171.84c31.5732 -15.6797 53.333 -48.2129 53.333 -85.8662zM298.667 379.094c85.4395 -19.4141 149.333 -95.6377 149.333 -187.072
s-63.8936 -167.701 -149.333 -187.094v44.0322c61.6533 18.3467 106.666 75.4131 106.666 143.04s-45.0127 124.693 -106.666 143.04v44.0537z" />
    <glyph glyph-name="uniF104" unicode="&#xf104;" 
d="M213.333 320l128 -128l-128 -128l-29.9941 29.9951l98.0049 98.0049l-98.0049 98.0049z" />
    <glyph glyph-name="uniF107" unicode="&#xf107;" 
d="M298.667 42.667v106.666h106.666v-42.666h-64v-64h-42.666zM341.333 277.333h64v-42.666h-106.666v106.666h42.666v-64zM170.667 277.333v64h42.666v-106.666h-106.666v42.666h64zM106.667 106.667v42.666h106.666v-106.666h-42.666v64h-64z" />
    <glyph glyph-name="uniF10A" unicode="&#xf10a;" 
d="M64 256v0h85.333l106.667 106.667v-341.334l-106.667 106.667h-85.333v128z" />
    <glyph glyph-name="uniF102" unicode="&#xf102;" 
d="M286.165 192l76.502 -76.501l-30.166 -30.166l-76.501 76.502l-76.4375 -76.502l-30.2295 30.166l76.502 76.501l-76.502 76.4375l30.2295 30.2295l76.4375 -76.502l76.501 76.502l30.166 -30.2295z" />
    <glyph glyph-name="uniF106" unicode="&#xf106;" 
d="M362.667 85.333v64h42.666v-106.666h-106.666v42.666h64zM149.333 149.333v-64h64v-42.666h-106.666v106.666h42.666zM298.667 341.333h106.666v-106.666h-42.666v64h-64v42.666zM106.667 234.667v106.666h106.666v-42.666h-64v-64h-42.666z" />
    <glyph glyph-name="uniF10B" unicode="&#xf10b;" 
d="M298.667 277.866c31.5732 -15.6797 53.333 -48.2129 53.333 -85.8662c0 -37.6318 -21.7598 -70.208 -53.333 -85.9736v171.84zM64 256h85.333l106.667 106.667v-341.334l-106.667 106.667h-85.333v128z" />
    <glyph glyph-name="uniF101" unicode="&#xf101;" 
d="M405.333 311.146l-119.146 -119.146l119.146 -119.146l-30.1865 -30.1865l-119.146 119.146l-119.146 -119.146l-30.1865 30.1865l119.146 119.146l-119.146 119.146l30.1865 30.1865l119.146 -119.146l119.146 119.146z" />
    <glyph glyph-name="uniF100" unicode="&#xf100;" 
d="M42.667 192c0 117.824 95.5088 213.333 213.333 213.333c117.803 0 213.333 -95.5088 213.333 -213.333c0 -117.803 -95.5303 -213.333 -213.333 -213.333c-117.824 0 -213.333 95.5303 -213.333 213.333z" />
    <glyph glyph-name="uniF105" unicode="&#xf105;" 
d="M328.661 290.005l-97.9834 -98.0049l98.0049 -98.0049l-30.0156 -29.9951l-128 128l128 128z" />
    <glyph glyph-name="uniF109" unicode="&#xf109;" 
d="M64 356.8l27.2002 27.2002l356.8 -356.8l-27.2002 -27.2002l-43.5195 43.4346c-22.5068 -18.4746 -49.2803 -31.915 -78.6133 -38.6348v44.0537c17.7061 5.33301 33.8135 14.1865 48.1064 25.1729l-90.7734 90.7734v-143.467l-106.667 106.667h-85.333v128h100.8z
M256 362.667v-89.1738l-44.5869 44.5869zM352 192c0 -4.58691 -0.320312 -9.17383 -0.959961 -13.6533l-52.373 52.373v47.1465c31.5732 -15.6797 53.333 -48.2129 53.333 -85.8662zM405.333 192c0 67.627 -45.0127 124.693 -106.666 143.04v44.0537
c85.4395 -19.4141 149.333 -95.7871 149.333 -187.094c0 -32 -8 -62.0801 -21.8672 -88.6611l-32.3193 32.3408c7.14648 17.3867 11.5195 36.2666 11.5195 56.3203z" />
  </font>
</defs></svg>

<svg xmlns="http://www.w3.org/2000/svg"><defs><font horiz-adv-x="512"><font-face font-family="Videobox" font-weight="500" units-per-em="512" panose-1="2 0 6 3 0 0 0 0 0 0" ascent="448" descent="-64" bbox="42.667 -21.333 469.333 405.333" underline-thickness="25.6" underline-position="-51.2" unicode-range="U+0020-F10C"/><glyph glyph-name="space" horiz-adv-x="200"/><glyph glyph-name="uniF103" unicode="" d="M170.667 341.333L405.333 192 170.667 42.667v298.666z"/><glyph glyph-name="uniF108" unicode="" d="M128 42.667v298.666h85.333V42.667H128zm170.667.02v298.647H384V42.687h-85.333z"/><glyph glyph-name="uniF10C" unicode="" d="M64 256h85.333L256 362.667V21.333L149.333 128H64v128zm288-64c0-37.653-21.76-70.186-53.333-85.974v171.84C330.24 262.186 352 229.654 352 192zm-53.333 187.094C384.107 359.68 448 283.456 448 192.022S384.106 24.321 298.667 4.928V48.96C360.32 67.307 405.333 124.373 405.333 192S360.32 316.693 298.667 335.04v44.054z"/><glyph glyph-name="uniF104" unicode="" d="M213.333 320l128-128-128-128-29.994 29.995L281.344 192l-98.005 98.005z"/><glyph glyph-name="uniF107" unicode="" d="M298.667 42.667v106.666h106.666v-42.666h-64v-64h-42.666zm42.666 234.666h64v-42.666H298.667v106.666h42.666v-64zm-170.666 0v64h42.666V234.667H106.667v42.666h64zm-64-170.666v42.666h106.666V42.667h-42.666v64h-64z"/><glyph glyph-name="uniF10A" unicode="" d="M64 256h85.333L256 362.667V21.333L149.333 128H64v128z"/><glyph glyph-name="uniF102" unicode="" d="M286.165 192l76.502-76.501-30.166-30.166L256 161.835l-76.438-76.502-30.229 30.166L225.835 192l-76.502 76.438 30.23 30.229L256 222.165l76.501 76.502 30.166-30.23z"/><glyph glyph-name="uniF106" unicode="" d="M362.667 85.333v64h42.666V42.667H298.667v42.666h64zm-213.334 64v-64h64V42.667H106.667v106.666h42.666zm149.334 192h106.666V234.667h-42.666v64h-64v42.666zm-192-106.666v106.666h106.666v-42.666h-64v-64h-42.666z"/><glyph glyph-name="uniF10B" unicode="" d="M298.667 277.866C330.24 262.186 352 229.653 352 192c0-37.632-21.76-70.208-53.333-85.974v171.84zM64 256h85.333L256 362.667V21.333L149.333 128H64v128z"/><glyph glyph-name="uniF101" unicode="" d="M405.333 311.146L286.187 192 405.333 72.854l-30.186-30.186L256 161.813 136.854 42.669l-30.187 30.186L225.814 192 106.668 311.146l30.186 30.186L256 222.188l119.146 119.146z"/><glyph glyph-name="uniF100" unicode="" d="M42.667 192c0 117.824 95.509 213.333 213.333 213.333 117.803 0 213.333-95.509 213.333-213.333 0-117.803-95.53-213.333-213.333-213.333-117.824 0-213.333 95.53-213.333 213.333z"/><glyph glyph-name="uniF105" unicode="" d="M328.661 290.005L230.678 192l98.004-98.005L298.668 64l-128 128 128 128z"/><glyph glyph-name="uniF109" unicode="" d="M64 356.8L91.2 384 448 27.2 420.8 0l-43.52 43.435C354.774 24.96 328 11.52 298.668 4.8v44.054c17.706 5.333 33.814 14.186 48.107 25.172L256 164.8V21.333L149.333 128H64v128h100.8zm192 5.867v-89.174l-44.587 44.587zM352 192c0-4.587-.32-9.174-.96-13.653l-52.373 52.373v47.146C330.24 262.186 352 229.653 352 192zm53.333 0c0 67.627-45.013 124.693-106.666 143.04v44.054C384.107 359.68 448 283.307 448 192c0-32-8-62.08-21.867-88.661l-32.32 32.34c7.147 17.387 11.52 36.267 11.52 56.32z"/></font></defs></svg>
